X:1
T:Final Fantasy VI - Kefka (Piano Reduction)
T:Final Fantasy VI - Kefka (Piano Reduction)
T:Original title in Japanese: 魔導士ケフカ (Madōshi Kefuka)
T:Nobuo Uematsu
C:Nobuo Uematsu
%%score { ( 1 3 ) | 2 }
L:1/8
Q:1/2=80
M:2/2
K:Db
V:1 treble nm="Piano" snm="Pno."
V:3 treble 
V:2 treble 
V:1
|:"^\n" .B2 .c2 .d2 .e2 | .f2 .d2 g2 fe | .f2 .d2 .c2 .e2 |[M:3/2] .d2 .B2 =A2 Bc .B2 .G2 | %4
[M:2/2] F2 .G2 F2 .G2 | .=E2 .F2 z4 | G2 .F2 G2 .F2 | =E2 .F2 .G2 F2 | %8
 .[Bd]2 .[cf]2 .[db]2 .[ec']2 | .[fd']2 .[db]2 [ge']2 d'c' | .[fd']2 .[db]2 .[c=a]2 .[ec']2 | %11
 .[db]2 .[Bg]2 [=Ae]2 [Bd][cf] | z2 .[DF]2 .[DF]2 .[DF]2 | .[DF]2 .[DF]2 A2 .G2 | %14
 .D2 .D2 .[DF]2 .[DF]2 | .[FB]2 .B2 .c2 .[Fc]2 | .[DG]2 .[DGB]2 .[DGB]2 .[DGB]2 | %17
 .[DGB]2 .[DGB]2 [Gd]2 .[Gc]2 | .[DG]2 .[DG]2 .[DG]2 .[DG]2 | .[DG]2 .[DG]2 .[DG]2 .[DG]2 | %20
!8va(! .f'2 z c' d'.b z d' | .e'2 .e'2 d'/4e'/4d'/4e'/4d'/4e'/4d'/ =a2!8va)! | %22
 .[Bd]2 .[Bdf]2 .[Bdf]2 .[Bdf]2 | .[Bdf]2 .[Bdf]2 [ca]2 .[eg]2 | .[Bd]2 .[Bd]2 .[Bd]2 .[Bd]2 | %25
 .[Bd]2 .[Bd]2 [Bd]2 .[Bd]2 | .[Bd]2 .[Bd]2 .[Bd]2 .[Bd]2 | .[Bd]2 .[Bd]2 d'2 .c'2 | %28
 .[Bd]2 .[Bd]2 .[dg]2 .[dg]2 | .[dg]2 .[dg]2 .[Bd]2 .[Bd]2 | .[Bd]2 .[Bdf]2 .[Bdf]2 .[Bdf]2 | %31
 .[Bdf]2 .[Bdf]2 [ca]2 .[eg]2 | .[Bd]2 .[Bd]2 .[Bd]2 .[Bd]2 | .[Bd]2 .[Bd]2 [Bd]2 .[Bd]2 | %34
 .[Bd]2 .[Bd]2 .[Bd]2 .[Bd]2 | .[Bd]2 .[Bd]2 d'2 .c'2 | .[Bd]2 .[Bd]2 .[dg]2 .[dg]2 | %37
 .[dg]2 .[dg]2 .[Bd]2 .[Bd]2 |!8va(! .f'2 z c' d'.b z d' | %39
 .e'2 .e'2 d'/4e'/4d'/4e'/4d'/4e'/4d'/ =a2!8va)! | .F2 .F2 .F2 z2 | z8 | .F2 .F2 .F2 z2 | %43
 (EDCD) .E2 z2 | .F2 .F2 .F2 .F2 |!ped! f2!ped! b2!ped-up!!ped! =a2!ped-up!!ped! bc'!ped-up! | %46
!ped! b2!ped! f2!ped-up!!ped! b2!ped-up!!ped! d'2!ped-up! | f'8-!ped! | f'8!ped-up! | %49
 _f'8!ped!!ped-up! | z2 _f'e' d'c'bg :| %51
V:2
|: .B,2 .C2 .D2 .E2 | .F2 .D2 G2 FE | .F2 .D2 .C2 .E2 |[M:3/2] .D2 .B,2 =A,2 B,C .B,2 .G,2 | %4
[M:2/2][K:bass] F,2 .G,2 F,2 .G,2 | .=E,2 .F,2 z4 | G,2 .F,2 G,2 .F,2 | =E,2 .F,2 .G,2 F,2 | %8
[K:treble] z .B z .c z .d z .e | z .f z .d z .gfe | z .f z .d z .c z .e | z .d z .B z .=A z2 | %12
[K:bass] .[B,,B,]2 z2 .[B,,B,]2 z2 | .[B,,B,]2 z2 C2 .E2 | .[B,,B,]2 z2 .[B,,B,]2 z2 | %15
 .[B,,B,]2 z2 [F,,F,]4 | .[G,,G,]2 z2 .[G,,G,]2 z2 | .[G,,G,]2 z2 =E2 _E2 | %18
 .[G,,G,]2 z2 .[G,,G,]2 z2 | .[G,,G,]2 z2 [G,,G,]4 |[K:treble] .[Ff]2 z [Cc] [Dd].[B,B] z [Dd] | %21
 .[Ee]2 .[Ee]2 [Dd]2 .[=A,=A]2 |[K:bass] .B,,2 z2 .F,,2 z2 | .B,,2 z2 z2 .F,,2 | %24
 .B,,2 z2 .F,,2 z2 | .B,,2 z2 _F,,4 | .G,,2 z2 .D,2 z2 | .B,,2 z2 .F,,2 z2 | .G,,2 z2 .D,2 z2 | %29
 .B,,2 z2 .G,,2 z2 | .B,,2 z2 .F,,2 z2 | .B,,2 z2 z2 .F,,2 | .B,,2 z2 .F,,2 z2 | .B,,2 z2 _F,,4 | %34
 .G,,2 z2 .D,2 z2 | .B,,2 z2 .F,,2 z2 | .G,,2 z2 .D,2 z2 | .B,,2 z2 .G,,2 z2 | %38
[K:treble] .[Ff]2 z [Cc] [Dd].[B,B] z [Dd] | .[Ee]2 .[Ee]2 [Dd]2 .[=A,=A]2 | .B,2 .C2 .D2 z2 | %41
 (CB,=A,B,) .C2 z2 | .B,2 .C2 .D2 z2 | (CB,=A,B,) .C2 z2 | .B,2 .C2 .D2 .E2 | %45
[K:bass3] [DF]4 [CE]4 | [B,D]4 [A,D]4 | [D,G,B,]8- | [D,G,B,]2 ([G,B,][A,C]) .[B,D]2 .[CE]2 | %49
 [B,D_F]8 | z8 :| %51
V:3
|: x8 | x8 | x8 |[M:3/2] x12 |[M:2/2] x8 | x8 | x8 | x8 | x8 | x8 | x8 | x8 | x8 | x8 | %14
 =E2 .F2 .G2 .A2 | .G2 F2 .A/.=G/._G/.F/ =E2 | x8 | x8 | =A2 .B2 .c2 .d2 | c2 .B2 .=A2 B2 | %20
!8va(! x8 | x8!8va)! | x8 | x8 | =e2 .f2 .g2 .a2 | .g2 f2 .a/.=g/._g/.f/ =e2 | x2 .b2 .b2 .b2 | %27
 .b2 .b2 =e2 ._e2 | =a2 .b2 .c'2 .d'2 | c'2 .b2 .=a2 b2 | x8 | x8 | =e2 .f2 .g2 .a2 | %33
 .g2 f2 .a/.=g/._g/.f/ =e2 | x2 .b2 .b2 .b2 | .b2 .b2 =e2 ._e2 | =a2 .b2 .c'2 .d'2 | %37
 c'2 .b2 .=a2 b2 |!8va(! x8 | x8!8va)! | x8 | x8 | x8 | x8 | x8 | x8 | x8 | x8 | x8 | x8 | x8 :| %51

